X:1
T:Sand's Reel,aka TS.220
T:Sand's Reel,aka TS.220
T:untitled in MS Labelled "2nd" on MS page
C:untitled in MS
C:Labelled "2nd" on MS page
L:1/8
Q:1/2=90
M:2/2
K:Gmin
V:1 treble 
V:1
 c |"^No key sig. in MS" B/c/d Gd BG dB | A/B/c Fc AF cA | B/c/d Gd BG dB | ^F/G/A DF G2 G :: A | %6
 B2 Bf B/B/B dB | cdcB ABcA | Ggga bag^f | g/a/b a^f g3 a | g/a/b =fd Bdfd | cdcB ABcA | %12
 Bdg^f gBce | dBcA G2 G :| %14

